X:1
T:Title
%%score 1 { ( 2 6 ) | ( 3 4 5 ) }
L:1/8
M:4/4
K:Eb
V:1 treble nm="Akkordion"
V:2 treble nm="Grand Piano"
V:6 treble 
V:3 bass 
V:4 bass 
V:5 bass 
V:1
 z4 z2[Q:1/4=100] B,2 | G3 F E2 D2 | C2 E2 B,3 B, | A2 F2 G2 E2 | F6 F2 | F3 F G2 F2 | F3 E E2 E2 | %7
 c3 c E2 F2 | G6 G2 | G3 G A2 G2 | G3 F F2 F2 | F3 F G2 F2 | B6 B2 | e3 B A2 G2 | %14
[M:19/16] F/-F/-F-<FFc/-c/-c/-c/-c/-c-<cc |[M:4/4] B B2 G F2 F2 |[M:3/4] E6 |[M:1/4] z2 | %18
[M:4/4] z8 | z8 | z8 | z8 | z8 | z8 | z8 |[M:3/4] z6 |[M:1/4] z2 |[M:4/4] z8 | z8 | %29
 z8[Q:1/4=98][Q:1/4=97][Q:1/4=95][Q:1/4=94][Q:1/4=92][Q:1/4=91][Q:1/4=89][Q:1/4=88][Q:1/4=86][Q:1/4=84][Q:1/4=83][Q:1/4=81][Q:1/4=80][Q:1/4=78][Q:1/4=77] | %30
[M:3/4] z6 |] %31
V:2
 z8 | [B,EG]3 [DF][K:bass] [E,G,B,E]2 [E,B,D]2 | [A,C]2 [A,CE]2 [G,B,]3 B, | %3
 [B,DA]2 [B,F]2 [B,G]2 [B,E]2 | [B,DF]2 [=A,EF]2 [B,DF]2 [DF]2 | D4- [D-G]2 [D-F]2 | %6
 [DF]3 E E2 [_DE]2 | [CEc]3 c E2 [EF]2 | G-[EG-][FG-][EG-] [=B,DG]2 [DG]2 | %9
 [B,C=EG][CEG][CEG][CEG] [B,CEA]2 [CEG]2 | [A,CG]GGF F2 [A,=B,F]2 | FFFF [DG]2 [B,DF]2 | %12
 [B,EB]BBB [B,DAB]BBB | [EGBe][GBe][GBe][B,EGB] [A,EA]2 [B,EG]2 | %14
[M:19/16] [CEF][EF][EF][EF][CE_Gc]/-[CEGc]/-[CEGc]/-[CEGc]/-[CEGc]/-[CEGc]-<[CEGc][CEGc] | %15
[M:4/4] [B,EGB][EGB][EGB][B,EG] [A,EF]2 [B,DF]2 |[M:3/4] [E,G,B,E]6 |[M:1/4] [B,GB][B,GB] | %18
[M:4/4] [EGB]4 .[B,EG]2 [B,GB][Ge] | [Ae]4 .[Ad]2 [DF]2 | [FA]3 [GB] [Ac]2 [Ad]2 | [GB]6 [GB][GB] | %22
 [Ge]4 .[Ad]2 [Be][Bd] | [Bd]4 .c2 e2 | B3 E [B,EG]2 [A,B,F]2 |[M:3/4] [G,B,E]6 |[M:1/4] z2 | %27
[M:4/4] G4[K:bass] z4 | [A,C]2 z2 z4 | [B,DA]2 [B,F]2 G-[=A,EG]F-[DF] | %30
[M:3/4][K:bass] [E,E]2- [E,-B,E-][E,-B,E-] [E,B,E]2 |] %31
V:3
 z4 z2 B,2 | z2 E,2 z4 | A,,2 C,2 E,2 E,,G, | F,2 D,2 E,2 G,,2 | B,,2 C,2 B,,2 B,2 | %5
 z2 z[K:treble] F G,4 | z2 z C [C,G,C]2 [B,,G,]2 | z2 z [CE] C2 C2 | z[K:treble] CDC G,2 =B,2 | %9
 z B,B,B, z2 B,2 | z [A,C][A,C][A,C] [A,C]2 [E,,E,]2 | [A,B,][A,B,][A,B,][A,B,] [B,,A,]2 [A,,A,]2 | %12
 z [B,E][B,E][B,E] z[K:treble] [B,DA][B,DA][B,DA] | z EE_D, C,2 B,,2 | %14
[M:19/16] z CCC=A,,/-A,,/-A,,/-A,,/-A,,/-A,,-<A,,A,, |[M:4/4] z B,B,B,, C,2 B,,2 |[M:3/4] E,,6 | %17
[M:1/4] E,E, |[M:4/4] E,4 .E,2 E,[E,B,] | [F,B,]4 .[B,F]2 [B,,B,]2 | %20
 [B,,B,]3 [B,,B,] [B,,B,]2 [B,,B,]2 | [E,B,]6 [E,B,][E,B,] | %22
 [E,B,]4 .[F,B,]2[K:treble] [G,E][G,E] | [A,E]4 .[A,EA]2 [=A,CF]2 | %24
 [B,EG]3[K:bass] [B,,G,] B,,2 B,,2 |[M:3/4] E,6 |[M:1/4] B,2 |[M:4/4] z2 E,2 z4 | %28
 A,,2 C,2 E,2 E,,G, | F,2 D,2 C,F,, z A, |[M:3/4] z2 G,F, G,2 |] %31
V:4
 x8 | z2 z A, E,,2 G,,2 | x8 | x8 | x8 | =B,,8[K:treble] | [C,G,]4 z4 | [A,,A,]8 | %8
 G,,6[K:treble] z2 | C,4 C,4 | [F,,F,]6 z2 | D,4 z4 | [G,,G,]4 [F,,F,]4[K:treble] | [E,,E,]4 z4 | %14
[M:19/16] A,,/-A,,/-A,,/-A,,/-A,,-<A,, z/ z/ z/ z/ z/ z/ z/ z/ z/ z |[M:4/4] B,,4 z4 |[M:3/4] x6 | %17
[M:1/4] x2 |[M:4/4] x8 | x8 | x8 | x8 | x6[K:treble] x2 | x8 | x3[K:bass] x5 |[M:3/4] x6 | %26
[M:1/4] x2 |[M:4/4] z2 z A, E,,2 G,,2 | x8 | z4 z2 B,,2 |[M:3/4] E,,6 |] %31
V:5
 x8 | E,,4 z4 | x8 | x8 | x8 | x3[K:treble] x5 | x8 | x8 | x[K:treble] x7 | x8 | x8 | x8 | %12
 x5[K:treble] x3 | x8 |[M:19/16] x19/2 |[M:4/4] x8 |[M:3/4] x6 |[M:1/4] x2 |[M:4/4] x8 | x8 | x8 | %21
 x8 | x6[K:treble] x2 | x8 | x3[K:bass] x5 |[M:3/4] x6 |[M:1/4] x2 |[M:4/4] E,,4 z4 | x8 | x8 | %30
[M:3/4] x6 |] %31
V:6
 x8 | x4[K:bass] x4 | E,4 z4 | x8 | x8 | [A,F]4 z4 | x8 | x8 | .[CE]2 z2 z4 | x8 | x8 | x8 | x8 | %13
 x8 |[M:19/16] x19/2 |[M:4/4] x8 |[M:3/4] x6 |[M:1/4] x2 |[M:4/4] x8 | x8 | x8 | x8 | x8 | x8 | %24
 x8 |[M:3/4] x6 |[M:1/4] x2 |[M:4/4] [B,E]2 [B,E][DF][K:bass] [E,G,B,E]2 [E,B,D]2 | %28
 E,2- [E,A,E]2 [G,B,]3 B, | z4 .[B,E]2 .[_A,E]2 |[M:3/4][K:bass] [A,B,]2 z2 z2 |] %31

